X:1
T:Vivre ne puis
T:Vivre ne puis 3v
T:Tielman Susato
T: Source : Le premier Livre des Chansons à 3 parties---Anvers---T.Susato---1544. Editor : André Vierendeels (08/02/15).  
T:Notes : Original clefs : G2, C2, C4 Original note values have been halved Editorial accidentals above tha staff Notive above the S voice : "Puis chanterez tous trois ensamble"
C:Tielman Susato
%%score [ 1 [ 2 3 ] ]
L:1/8
Q:1/4=80
M:4/4
K:C
V:1 treble nm="Superius" snm="S"
V:2 treble-8 nm="Tenor 1" snm="T 1"
V:3 treble-8 nm="Tenor 2" snm="T 2"
V:1
 z8 | A8 | c4 c4 | B4 z2 B2 | B2 B2 c2 c2 | dc BA B2 c2 | BA A4 G2 | A8 | z2 A4 G2 | F4 E2 E2 | %10
w: |Vi-|vre ne|puis con-|tent sans sa pre-|sen- * * * * *||ce,|mou- rir|m'est doulx si|
 G2 G2 A2 A2 | c3 B AG G2- |"^#" G2 F2 G4- | G4 z2 c2 | c2 B2 c2 e2 | e2 d3 e f2 | e2 d3 c c2- | %17
w: ie n'a- vois les-|poir, _ _ _ _|_ _ _|* de|prompt re- tour et|que loy- * *|al deb- * *|
 c2 B2 c4- | c4 z2 c2 | e3 d c3 B/A/ | GA Bc dc BA | GF G2 A2 A2 | c2 B3 A A2- | A2 G2 AG AB | %24
w: * * voir,|_ de|mon _ _ _ _|_ _ _ _ _ _ _ _|* * * mour, de|mon a- * *|* * mour _ _ _|
 c2 BA B2 c2 |: c2 c2 d2 e2- | ed cB AB cA | B2 c3 B A2- | A2 G2 A4 | z2 A2 c3 B/A/ | %30
w: _ _ _ _ luy|en fist cong- nois-||* * * san-|* * ce,|de mon _ _|
 GA Bc B2 A2- | A2 G2 AG AB |1 c2 BA B2 c2 :|2 A2 G2 A4- || A8 |] %35
w: _ _ a- * * *|* * mour _ _ _|_ _ _ _ luy|(san)- * ce.|_|
V:2
 d8 | f4 f4 | e2 A2 ABcd | edef g2 e2- | e2 d2 c3 B/A/ | G2 g3 f e2 | d3 c B4 | A4 z2 d2- | %8
w: Vi-|vre ne|puis con- ten- * * *|* * * * sans _|_ _ _ _ _|sa pre- * *|sen- * *|ce, mou-|
 d2 c2 B4 | A2 A2 c3 d | e2 e2 f4 | e3 d c2 B2 | A4 G2 c2 | c2 B2 cBcd | e2 e2 ABcd | ef g3 f d2 | %16
w: * rir m'est|doulx si ie _|_ n'a- vois|les- * * *|* poir de|prompt re- tour _ _ _|_ et que _ _ _|_ _ loy- * *|
 e2 f3 e dc | d4 c4 | z2 A2 c3 B | ABcd e2 c2 | e2 dc Bcdc | BA B2 A2 z A | A2 B2 c2 d2 | B4 ABcd | %24
w: deb- * * * *|* voir,|de mon _|_ _ _ _ _ a-|mour, _ _ _ _ _ _|_ _ _ _ de|mon _ _ _|a- mour _ _ _|
 ef g3 f ed |: c3 B/A/ B2 c2 | c2 c2 d2 e2- | edcB c2 d2 | B4 A2 z d | f3 e/d/ cd e2- | %30
w: _ _ _ _ _ _||luy en fist con-|* * * * gnois- san-|ce. ce, de|mon _ _ _ _ _|
 e2 dc dcBA | B4 ABcd |1 ef g3 f ed :|2 B4 A4- || A8 |] %35
w: _ _ _ _ _ _ _|a- mour _ _ _|_ _ _ _ _ _|(san)- ce.|_|
V:3
 z8 | D8 | A3 B c2 A2 | E4 z2 E2 | G2 G2 A2 A2 | B2 E4 C2 | D2 D2 E2 E2 | F4 D4 | A4 E2 G2 | %9
w: |Vi-|vre _ _ ne|puis con-|tent sans sa pre-|sen- * *|ce,- sans sa pre-|sen- ce,|mou- rir m'est|
 D4 A4 | E2 G2 D2 D2 | A2 E2 F2 G2 | D4 z2 C2 | G2 G2 C2 A2 | A2 G2 c2 A2 | c2 GA Bc dB | %16
w: doulx, mou-|rir m'est doulx si|ie n'a- vois l'es-|poir de|prompt re- tour, de|prompt re- tour, et|que loy- * * * * *|
 c2 d2 _B2 c2 | G4 z2 A2 | c3 B AG AB | c4 z2 A2 | c2 BA G3 A | E2 E2 c3 B | A2 G2 A2 D2 | %23
w: al deb- * *|voir, de|mon a- mour, _ _ _|_ de|mon a- * * *|mour, de mon _|_ a- mour, de|
 EF GE F3 E/D/ | CD EF G2 A2 |: A2 A2 G2 E2 | A3 G F2 EA | G2 A4 D2 | E2 E2 F3 D | D4 z2 A2 | %30
w: mon- _ a- * * * *|mour _ _ _ _ luy|en fist con- gnois-||* san- *|ce- de mon a-|mour, de|
 c2 BA G2 A2 | E2 E2 F3 E/D/ |1 CDEF G2 A2 :|2 D4 A4- || A8 |] %35
w: mon- a- * * mour,|de mon a- * *|mour _ _ _ _ luy|(san) ce.|_|

